X:1
T:Living for Jesus
T:Living for Jesus
T:Carl Harold Lowden, 1915
T:Thomas Obediah Chisholm, 1917
T:Public Domain Courtesy of the Cyber Hymnal™
T:Public Domain Courtesy of the Cyber Hymnal™
C:Carl Harold Lowden, 1915
Z:Public Domain
Z:Courtesy of the Cyber Hymnal™
%%score ( 1 2 ) ( 3 4 )
L:1/8
Q:1/4=128
M:4/4
K:F
V:1 treble 
V:2 treble 
V:3 bass 
V:4 bass 
V:1
 [FA]2 [FB]4 [FA]2 | [Ec]2 [EG]4 [_EA]2 | [DB]2 [DF]4 [_DG]2 | [CA]8 | [EA]2 [EG]4 [EA]2 | %5
w: 1.~Liv- ing for|Je- sus, a|life that is|true,|Striv- ing to|
w: 2.~Liv- ing for|Je- sus who|died in my|place,|Bear- ing on|
w: 3.~Liv- ing for|Je- sus, wher-|ev- er I|am,|Do- ing each|
w: 4.~Liv- ing for|Je- sus through|earth’s lit- tle|while,|My dear- est|
 [CG]2 [CF]4 [CE]2 | [=B,D]2 [FA]4 [FG]2 | [EG]8 | [FA]2 [FB]4 [FA]2 | [Ec]2 [EG]4 [_EA]2 | %10
w: please Him in|all that I|do;|Yield- ing al-|le- giance, glad|
w: Cal- vary my|sin and dis-|grace;|Such love con-|strains me to|
w: du- ty in|His ho- ly|name;|Will- ing to|suf- fer af-|
w: trea- sure, the|light of His|smile;|Seek- ing the|lost ones He|
 [DB]2 [DF]4 [EG]2 | [EA]8 | G2 [^Ge]4 [Gd]2 | [Ac]2 F4 G2 | [FA]2 [EA]4 [EG]2 | F6 || %16
w: heart- ed and|free,|This is the|path- way of|bless- ing for|me.|
w: an- swer His|call,|Fol- low His|lead- ing and|give Him my|all.|
w: flict- ion and|loss,|Deem- ing each|tri- al a|part of my|cross.|
w: died to re-|deem,|Bring- ing the|wear- y to|find rest in|Him.|
"^Refrain" [CAc]2 | [CAc]2 [Aca]2 [Aca]2 [GBg]2 | [GBg]2 [FAf]4 [DBd]2 | %19
w: |||
w: O|Je- sus, Lord and|Sav- ior, I|
w: |||
w: |||
 [DBd]2 [Bdb]2 [Bdb]2 [Aca]2 | [GBg]6 [Fdf]2 | [Ece]2 [cec']2 [cec']2 [Bdb]2 x4 | %22
w: |||
w: give my- self to|Thee, For|Thou, in Thy a-|
w: |||
w: |||
 [Bdb]2 [Aca]4 [Aca]2 | [ABa]2 [GBg]2 [DBd]2 [ABa]2 | [GBg]6 [CBc]2 | [CAc]2 [Aca]2 [Aca]2 [GBg]2 | %26
w: ||||
w: tone- ment, didst|give Thy- self for|me. I|own no o- ther|
w: ||||
w: ||||
 [GBg]2 [FAf]4 [FAf]2 | [FAf]2 [dfd']2 [dfd']2 [c_ec']2 | [Bdb]6 [DBd]2 | %29
w: |||
w: mas- ter, my|heart shall be Thy|throne. My|
w: |||
w: |||
 [Fdf]2 [Ede]2 [Fdf]2 [G_dg]2 | [Aca]2 [Aca]2 [Bdb]6 [Aca]2 | [A=Ba]2 [GBg]2 [D_Bd]2 [EBe]2 | %32
w: |||
w: life I give, hence-|forth to live, O|Christ, for Thee a-|
w: |||
w: |||
 [FAf]6 |] %33
w: |
w: lone.|
w: |
w: |
V:2
 x8 | x8 | x8 | x8 | x8 | x8 | x8 | x8 | x8 | x8 | x8 | x8 | x8 | x6 F2 | x8 | F6 || x2 | x8 | x8 | %19
 x8 | x8 | x12 | x8 | x8 | x8 | x8 | x8 | x8 | x8 | x8 | x12 | x8 | x6 |] %33
V:3
 [F,C]2 [F,D]4 [C,C]2 | [C,C]2 [C,C]4 [F,C]2 | [B,,B,]2 [B,,B,]4 [B,,F,]2 | F,8 | %4
 [C,C]2 [C,B,]4 [C,C]2 | [F,B,]2 [F,A,]4 [F,A,]2 | G,2 [G,=B,]4 [G,B,]2 | [C,C]8 | %8
 [F,C]2 [F,D]4 [F,C]2 | [C,C]2 [C,C]4 [F,C]2 | [B,,B,]2 B,4 [B,D]2 | [A,^C]8 | %12
 [B,D]2 [=B,F]4 [B,F]2 | [CF]2 [A,C]4 [B,D]2 | C2 [C,C]4 [C,B,]2 | [F,A,]6 || z2 | %17
 (F,,2 [A,CF]2 [B,CE]4) | (F,,2 [F,A,C]2 [A,CF]2) z2 | (G,,2 [B,DG]2 [D^F]4) | %20
 (G,,2 [G,B,D]2 [B,DG]2) z2 | C,,2 [G,B,C]2 [CE]8 | F,,2 [F,A,C]2 [A,CF]4 | %23
 G,,2 [F,G,=B,]2 [G,B,]4 | (C,,2 [E,B,C]2 [G,B,CE]2) z2 | (F,,2 [A,CF]2 [CE]4) | %26
 F,,2 ([F,A,C]2 [A,CF]2) z2 | F,,2 [F,A,_E]2 [EF]4 | (B,,2 [F,B,D]2 [B,DF]2) z2 | %29
 B,,2 [F,B,D]2 B,,2 [F,B,_D]2 | C,2 [A,CF]2 [D,CD^F]6 z2 | G,,2 [G,=B,F]2 C,,2 [G,_B,C]2 | %32
 (F,,2 [F,A,C]2 [F,A,C]2) |] %33
V:4
 x8 | x8 | x8 | F,8 | x8 | x8 | x8 | x8 | x8 | x8 | x8 | x8 | x8 | x8 | x8 | x6 || x2 | x8 | x8 | %19
 C4 x4 | x8 | x4 B,4 x4 | x8 | x8 | x8 | B,4 x4 | x8 | A,4 x4 | x8 | x8 | x12 | x8 | x6 |] %33

